X:1
T:Coblentz, 87.87.77
T:Coblentz, 87.87.77
T:Joachim Neander, Alpha und Omega, 1680
T:Public Domain Courtesy of the Cyber Hymnal™
C:Joachim Neander, Alpha und Omega, 1680
Z:Public Domain
Z:Courtesy of the Cyber Hymnal™
%%score ( 1 2 ) ( 3 4 )
L:1/8
Q:1/4=107
M:none
K:C
V:1 treble 
V:2 treble 
V:3 bass 
V:4 bass 
V:1
 [EA]2 [E^G]2 [CA]2 [FB]2 | [Ec]2 [Ec]2 B2 E2 | [EA]2 [EG]2 [DF]2 [CE]2 | [CD]2 [B,D]2 C4 | %4
 [EA]2 ^G2 [CA]2 [FB]2 | [Ec]2 [^Dc]2 [EB]2 E2 | [EA]2 [EG]2 [CF]2 [CE]2 | [A,D]2 [B,D]2 C4 | %8
 [Ec]2 [Ec]2 [FB]2 B2 | A3 (z A) [B,^G]4 | [CE]2 [C^F]2 [D^G]2 [EA]2 | A2 [E^G]2 [EA]4 |] %12
V:2
 x8 | x4 (E^D) E2 | x8 | x4 C4 | x2 (ED) x4 | x6 E2 | x8 | x4 C4 | x6 (ED) | C2 D2 x5 | x8 | %11
 A2 x6 |] %12
V:3
 [A,C]2 [E,B,]2 [F,A,]2 [D,G,]2 | [C,G,]2 [A,,A,]2 (^G,^F,) [E,G,]2 | %2
 [A,,C]2 [C,C]2 (A,B,) [E,C]2 | [F,A,]2 G,2 [C,E,]4 | [A,,C]2 [E,B,]2 [F,A,]2 [D,G,]2 | %5
 [E,G,]2 [^F,A,]2 [G,B,]2 [E,^G,]2 | [A,,C]2 [E,B,]2 [F,A,]2 [C,G,]2 | [D,F,]2 [G,,G,]2 [C,E,]4 | %8
 [C,G,]2 [A,,A,]2 [D,A,]2 [E,G,]2 | ([F,A,][E,G,]) [D,F,]2 E,4 x | %10
 [C,A,]2 [A,,C]2 [B,,B,]2 [C,A,]2 | [D,B,]2 [E,B,]2 [A,,C]4 |] %12
V:4
 x8 | x4 E,2 x2 | x4 D,2 x2 | x2 G,2 x4 | x8 | x8 | x8 | x8 | x8 | x4 E,4 x | x8 | x8 |] %12

